X:1
T:An den Sonnenschein
T:Vinzenz Lachner
T:Robert Reinick
T:An den Sonnenschein
T:CPDL - Creative Commons Attribution Non Commercial 3.0
T:CPDL - Creative Commons Attribution Non Commercial 3.0
T:CPDL - Creative Commons Attribution Non Commercial 3.0
C:Vinzenz Lachner
Z:Robert Reinick
Z:CPDL - Creative Commons Attribution Non Commercial 3.0
%%score [ ( 1 2 ) ( 3 4 ) ]
L:1/8
Q:1/4=100
M:3/4
K:F
V:1 treble-8 nm="Tenor"
V:2 treble-8 
V:3 bass nm="Bass"
V:4 bass 
V:1
"^Andante"!mf! c | d>c c3 c | g>f!<(! f2!<)! f2 | f3 f!>(! e!>)!d |{/d} c>=B c3 z | z4 z2 | %6
w: 1.~O|Son- nen- schein! o|Son- nen- schein! wie|scheinst du mir ins|Herz hin- ein,||
w: 2.~Und|en- ge wird mir|Stub' und Haus, und|wenn ich lauf' zum|Tor hin- aus,||
w: 3.~O|Son- nen- schein, du|glau- best wohl, dass|ich wie du es|ma- chen soll,||
 z2 z2"^cresc." f2 | ^fg =fe{/e} dc | c>f c3!pp! c | ^cc d"^cresc."d ee | f4!f! f2 | f>e dc a>g | %12
w: weckst|drin- nen lau- * ter _|Lie- bes- lust, dass|mir so en- ge wird die|Brust, dass|mir so en- ge wird die|
w: da|lockst du gar _ ins _|fri- sche Grün die|al- ler- schöns- ten Mäd- chen|hin, die|al- ler- schöns- ten Mäd- chen|
w: der|je- de schmu- * cke _|Blu- me küsst, die|e- ben nur sich dir er-|schließt, die|e- ben nur sich dir er-|
 f4 z :| c | d>c c3 c | g>!<(!f f2 f2!<)! | f3 f!>(! ed!>)! |{/d} c>=B | c3 z | z4 z2 | %20
w: Brust.|4.~Hast|doch so lang' die|Welt er- blickt, und|weißt, dass sich's für|mich nicht|schickt!||
w: hin.||||||||
w: schließt.||||||||
 z2 z2"^cresc." f2 | ^fg =fe (3edc |!<(! (d2 c2)!<)!!f! f2 | f>=e f3 f | _g>=e f3 f | f>=e f3 f | %26
w: Was|machst du mir denn * * *|Pein? _ O|Son- nen- schein! o|Son- nen- schein, wie|scheinst du mir ins|
w: ||||||
w: ||||||
 _g>=e f3!pp! f | f3 =B BB | =B>c"^cresc." c2 c2 | f3 =B BB | =B>c!>(! !fermata!c3!>)!!p! c | %31
w: Herz hin- ein, weckst|drin- nen lau- ter|Lie- bes- lust, weckst|drin- nen lau- ter|Lie- bes- lust, dass|
w: |||||
w: |||||
 ^cc dd!<(! ee | f4!<)!!f! f2 | f>e dc a>g | !fermata!f6 |] %35
w: mir so en- ge wird die|Brust, dass|mir so en- ge wird die|Brust,|
w: ||||
w: ||||
V:2
 A | B>B B3 B | A>c c2 ^c2 | d3 d =cB |{/B} A>^G A3 c | c3 c cc | c>d c2 c2 | cc c2 B2 | A>A A3 A | %9
w: ||||* * * weckst|drin- nen lau- ter|Lie- bes- lust, *|||
w: ||||* * * da|lockst du gar ins|fri- sche Grün, *|||
w: ||||* * * der|je- de schmu- cke|Blu- me küsst, *|||
 AA BB BB | =B4 B2 | c>_B BB e>c | c4 x :| A | B>B B3 B | A>c c2 ^c2 | d3 d =cB |{/B} A>^G | A3 c | %19
w: |||||||||* Was|
w: ||||||||||
w: ||||||||||
 cc cc cc | c4 c2 | cc cc BB | (=B2 c2) c2 | _d>d d3 d | _d>d d3 d | _d>d d3 d | _d>d d3 _A | %27
w: machst du mir denn sol- che|Pein, _|_ _ _ _ sol- che||||||
w: ||||||||
w: ||||||||
 _A3 A AA | _A>=A A2 A2 | _A3 A AA | _A>=A A3 A | BB BB BB | =B4 B2 | c>_B BB e>c | c6 |] %35
w: ||||||||
w: ||||||||
w: ||||||||
V:3
!mf! A, | G,>G, G,3 C | C>A,!<(! A,2!<)! A,2 | B,3 F,!>(! F,!>)!F, | F,>F, F,3 A, | B,3 B, B,B, | %6
 A,>A, A,2"^cresc." A,2 | B,B, B,2 G,2 | F,>F, F,3!pp! A, | G,G, G,"^cresc."G, G,G, | _A,4!f! A,2 | %11
 =A,>G, F,E, C>B, | A,4 z :| A, | G,>G, G,3 C | C>!<(!A, A,2 A,2!<)! | B,3 F,!>(! F,F,!>)! | %17
 F,>F, | F,3 A, | B,B, B,B, B,B, | A,4"^cresc." A,2 | B,B, B,B, G,G, |!<(! (^G,2 A,2)!<)!!f! A,2 | %23
 _A,>=G, A,3 =A, | B,>=G, _A,3 A, | _A,>=G, A,3 =A, | B,>=G, _A,3!pp! F, | F,3 F, F,F, | %28
 F,>F,"^cresc." F,2 F,2 | F,3 F, F,F, | F,>F,!>(! !fermata!F,3!>)!!p! A, | G,G, G,G,!<(! G,G, | %32
 _A,4!<)!!f! A,2 | =A,>G, F,E, C>B, | !fermata!A,6 |] %35
V:4
 F, | F,>E, E,3 E, | F,>F, F,2 F,2 | B,,3 B,, B,,B,, | F,>F, F,3 F, | ^F,G, =F,E,{/E,} D,C, | %6
w: |||||drin- nen lau- * ter _|
w: |||||lockst du gar _ ins _|
w: |||||je- de schmu- * cke _|
 C,>F, C,2 C,2 | C,E, G,2 F,E, | F,>F, F,3 F, | E,E, D,D, ^C,C, | _D,4 D,2 | C,>C, C,C, C,>C, | %12
w: _ _ _ _||||||
w: _ _ _ _||||||
w: _ _ _ _||||||
 F,4 x :| F, | F,>E, E,3 E, | F,>F, F,2 F,2 | B,,3 B,, B,,B,, | F,>F, | F,3 F, | %19
w: |||||||
w: |||||||
w: |||||||
 ^F,G, =F,E, (3E,D,C, | (C,2 F,2) F,2 | E,E, G,G, F,E, | F,4 F,2 | _D,>D, D,3 D, | %24
w: |||||
w: |||||
w: |||||
 _G,,>B,, _D,3 D, | _D,>D, D,3 D, | _G,,>B,, _D,3 D, | _D,3 D, D,D, | _D,>C, C,2 C,2 | %29
w: |||||
w: |||||
w: |||||
 _D,3 D, D,D, | _D,>C, C,3 F, | =E,E, D,D, ^C,C, | _D,4 D,2 | C,>C, C,C, C,>C, | F,6 |] %35
w: ||||||
w: ||||||
w: ||||||

